packages/foundations/assets/icons/functional/images/file/folder_open_14_filled.svg

<svg width="14" height="14" viewBox="0 0 14 14" fill="none" xmlns="http://www.w3.org/2000/svg">
<g clip-path="url(#clip0_2208_3407)">
<path fill-rule="evenodd" clip-rule="evenodd" d="M6.35355 2.79999C6.57901 2.79999 6.76128 2.92395 6.84258 3.01444L7.64697 3.84999H10.4995C11.2375 3.84999 11.9033 4.44076 11.8995 5.24999V6.29999C12.3136 6.29999 12.679 6.68388 12.5855 7.13727L11.9984 10.0746C11.8748 10.6926 11.3279 11.2 10.6256 11.2H3.37333C2.74573 11.2 2.14779 10.7723 2.00052 10.0746L1.41306 7.13727C1.33184 6.73119 1.63088 6.29999 2.09947 6.29999V4.19999C2.09947 3.46193 2.68349 2.79999 3.49923 2.79999H6.35355ZM6.04117 4.19999H3.49947L3.49923 6.29999H10.4992L10.4995 5.24999H7.34947C7.18653 5.24999 6.99947 5.19432 6.84524 5.03554L6.04117 4.19999Z" fill="#1A1C1F"/>
</g>
<defs>
<clipPath id="clip0_2208_3407">
<rect width="14" height="14" fill="white"/>
</clipPath>
</defs>
</svg>

<svg xmlns="http://www.w3.org/2000/svg" width="14" height="14" fill="none"><g clip-path="url(#a)"><path fill="#1A1C1F" fill-rule="evenodd" d="M6.354 2.8a.7.7 0 0 1 .489.214l.804.836h2.852c.739 0 1.404.59 1.4 1.4V6.3c.415 0 .78.384.687.837l-.588 2.938a1.4 1.4 0 0 1-1.372 1.125H3.373a1.4 1.4 0 0 1-1.372-1.125l-.588-2.938A.7.7 0 0 1 2.1 6.3V4.2c0-.738.584-1.4 1.4-1.4zM6.04 4.2H3.5v2.1h7V5.25H7.35a.7.7 0 0 1-.504-.214z" clip-rule="evenodd"/></g><defs><clipPath id="a"><path fill="#fff" d="M0 0h14v14H0z"/></clipPath></defs></svg>
